!!!!SEGMENT: pl-kk--kk-i-40--001-001_anonim--missa-sine-nomine-kyrie.krn
!!!cenid: 16xx:1277
!!!COM: Anonim
!!!COM-rismID: pe30004985
!!!CDT:
!!!CNT:
!!!OPR: Missa sine nomine
!!!OTL: Kyrie
!!!OMV: 001
!!!PDT:
!!!AGN: Sacred; Mass
!!!SMS-siglum: PL-Kk
!!!SMS-shelfmark: Kk.I.40
!!!SMS-shelfwork: 001-001 M
!!!SMS-variant:
!!!SMS-altvar:
!!!NIFC-rismSourceID: 1001154486
!!!NIFC-islandoraID: pl-kk:2717
!!!URL-pdf-islandora: https://repozytorium.nifc.pl/islandora/object/pl-kk%3A2717/datastream/PDF/view
!!!URL-scan: https://polish.musicsources.pl/pl/lokalizacje/galeria/rekopisy/6010 @EN{Scan on Polish Music Sources Website} @PL{Skany w portalu Dziedzictwo Muzyki Polskiej w otwartym dostępie}
!!!ONB-nifc: UWAGA: części Mszy: 1. Kyrie, 2. Et in terra, 3. Sanctus, 4. Agnus Dei. Skan 0003-0004
!!!AIN: 1 bass
!!!key:
**kern	**text
*Ibass	*
*I"Basso Ripieno.	*
*I'B rip	*
*clefF3	*
*k[b-]	*
*g:	*
*M2/1	*
*met(C|)	*
=1-	=1-
!LO:TX:a:B:t=Miſsa 1mi Toni\nSine Nomine	!
!LO:TX:t=P:problem=przy kluczu BB- B-	!
00r	.
=2-	=2-
.	.
=3-	=3-
!LO:TX:t=P:problem=kreska pseudotaktowa	!
00r	.
=4-	=4-
.	.
=5-	=5-
0G	Ky-
=6-	=6-
!LO:TX:t=P:problem=kreska pseudotaktowa	!
1A	-ri-
1B-	-e
=7-	=7-
*2\right	*
2B-\	e-
!LO:TX:t=P:problem=kreska pseudotaktowa	!
[<2A\	.
!LO:N:xstem:cue	!
4A\]	.
4G\	.
1G\	-lei-
=8-	=8-
.	.
!LO:TX:t=P:problem=kreska pseudotaktowa	!
2F\	.
1G	.
=9-	=9-
!LO:TX:t=P:problem=kreska pseudotaktowa	!
1C,<	-son
1F	Ky-
=10-	=10-
2D/	-ri-
1G	-e
!LO:TX:t=P:problem=kreska pseudotaktowa	!
2F#X\	.
=11-	=11-
2G\	.
2E/	e-
!LO:TX:t=P:problem=kreska pseudotaktowa	!
1D	.
!LO:LB:g=original	!
=12-	=12-
1G	.
2C/	.
2C/	.
=13-	=13-
1Fny	-lei-
!LO:TX:t=P:problem=kreska pseudotaktowa	!
1BB-	-son
=14-	=14-
00r	.
=15-	=15-
.	.
=16-	=16-
!LO:TX:t=P:problem=kreska pseudotaktowa	!
1r	.
2r	.
1F\	Ky-
=17-	=17-
.	.
!LO:TX:t=P:problem=kreska pseudotaktowa	!
2G\	-ri-
1.A	-e
=18-	=18-
.	.
!LO:TX:t=P:problem=kreska pseudotaktowa	!
2B-\	.
0A	e-
=19-	=19-
.	.
2.G\	.
!LO:TX:t=P:problem=kreska pseudotaktowa	!
4A\	.
=20-	=20-
2B-\	.
2A\	-lei-
!LO:TX:t=P:problem=kreska pseudotaktowa	!
1B-,<	-son
=21-	=21-
00r	.
=22-	=22-
.	.
=23-	=23-
2r	.
1BB-	Ky-
!LO:TX:t=P:problem=kreska pseudotaktowa	!
2C/	-ri-
=24-	=24-
1D	-e
!LO:TX:a:t=P:problem=♭ above	!
0E-X	e-
=25-	=25-
.	.
*lig	*
1D	-lei-
=26-	=26-
1C	.
1D	.
*Xlig	*
=27-	=27-
0Gl;	-son
=28||	=28||
*M2/1	*
*met(C|)	*
00r	.
=29-	=29-
.	.
=30-	=30-
00r	.
=31-	=31-
.	.
=32-	=32-
!LO:TX:t=P:problem=kreska pseudotaktowa	!
00r	.
=33-	=33-
.	.
=34-	=34-
1F	Chri-
!LO:TX:t=P:problem=kreska pseudotaktowa	!
1G	-ste
=35-	=35-
1.B-	e-
!LO:TX:t=P:problem=kreska pseudotaktowa	!
2c\	.
=36-	=36-
2B-\	-lei-
2A\	.
1G	.
=37-	=37-
!LO:TX:t=P:problem=kreska pseudotaktowa	!
1F	-son
!LO:LB:g=original	!
2r	.
!LO:TX:t=P:problem=kreska pseudotaktowa	!
2G\	Chri-
=38-	=38-
2A\	-ste
1c	.
2B-\	.
=39-	=39-
!LO:TX:t=P:problem=kreska pseudotaktowa	!
1A	e-
2.D/	-lei-
4E/	.
=40-	=40-
2F/	.
2C/	.
1G	.
=41-	=41-
!LO:TX:t=P:problem=kreska pseudotaktowa	!
1F,<	-son
0r	.
=42-	=42-
.	.
2r	.
!LO:TX:t=P:problem=kreska pseudotaktowa	!
2F\	Chri-
=43-	=43-
2G\	-ste
!LO:TX:t=P:problem=kreska pseudotaktowa	!
2A\	.
2.B-\	.
!LO:TX:t=P:problem=kreska pseudotaktowa	!
4A\	.
=44-	=44-
4B-\	e-
4c\	.
!LO:TX:t=P:problem=kreska pseudotaktowa	!
2d\	.
1c	-lei-
=45-	=45-
1.B-	.
!LO:TX:t=P:problem=kreska pseudotaktowa	!
2A\	.
=46-	=46-
2B-\	.
2c\	.
2G\	.
2B-\	.
=47-	=47-
1A	.
!LO:TX:t=P:problem=kreska pseudotaktowa	!
1G,<	-son
=48-	=48-
!LO:TX:t=P:problem=kreska pseudotaktowa	!
1r	.
1C	Chri-
=49-	=49-
!LO:TX:t=P:problem=kreska pseudotaktowa	!
1D	.
1.F	-ste
=50-	=50-
.	.
2G\	.
2F/	e-
2E/	.
=51-	=51-
!LO:TX:t=P:problem=kreska pseudotaktowa	!
0D	.
!LO:LB:g=original	!
=52-	=52-
2.BB-/	-lei-
4C/	.
2D/	.
!LO:TX:t=P:problem=kreska pseudotaktowa	!
2C#X/	.
=53-	=53-
1D	.
1AA	.
=54-	=54-
0Dl;	-son
=55||	=55||
*M2/1	*
*met(C|)	*
0G	Ky-
=56-	=56-
!LO:TX:t=P:problem=kreska pseudotaktowa	!
1A	-ri-
2.B-\	-e
!LO:TX:t=P:problem=kreska pseudotaktowa	!
4A\	e-
=57-	=57-
2G\	.
!LO:TX:t=P:problem=kreska pseudotaktowa	!
2F\	.
2G\	-lei-
2A\	.
=58-	=58-
!LO:TX:t=P:problem=kreska pseudotaktowa	!
1D,<	-son
1G	Ky-
=59-	=59-
1C	-ri-
!LO:TX:t=P:problem=kreska pseudotaktowa	!
1F	-e
=60-	=60-
2.G\	.
!LO:TX:t=P:problem=kreska pseudotaktowa	!
4A\	e-
4B-\	.
4c\	.
1d\	.
=61-	=61-
.	.
!LO:TX:t=P:problem=kreska pseudotaktowa	!
2c\	.
2.d\	-lei-
4c\	.
=62-	=62-
2Bn\	.
2c\	.
!LO:TX:t=P:problem=kreska pseudotaktowa	!
1G,<	-son.
=63-	=63-
!LO:TX:t=P:problem=kreska pseudotaktowa	!
00r	.
=64-	=64-
.	.
!LO:LB:g=original	!
=65-	=65-
2r	.
1F	Ky-
!LO:TX:t=P:problem=kreska pseudotaktowa	!
2G\	-ri-
=66-	=66-
2A\	-e
!LO:TX:t=P:problem=kreska pseudotaktowa	!
2B-y\	.
2A\	e-
2G\	.
=67-	=67-
1A	-lei-
!LO:TX:t=P:problem=kreska pseudotaktowa	!
1D,<	-son
=68-	=68-
00r	.
=69-	=69-
.	.
=70-	=70-
!LO:TX:t=P:problem=kreska pseudotaktowa	!
1r	.
*	*ij
1D	Ky-
=71-	=71-
2.G\	-ri-
!LO:TX:t=P:problem=kreska pseudotaktowa	!
4F/	.
1E-X	-e
=72-	=72-
2D/	e-
!LO:TX:t=P:problem=kreska pseudotaktowa	!
2C/	.
2D/	-lei-
2F/	.
=73-	=73-
2BB-,</	-son
!LO:TX:t=P:problem=kreska pseudotaktowa	!
2B-\	Ky-
2A\	-rie
2G\	e-
=74-	=74-
2F/	-lei-
2C/	.
!LO:TX:t=P:problem=kreska pseudotaktowa	!
1F	-son
*	*Xij
=75-	=75-
!LO:TX:t=P:problem=kreska pseudotaktowa	!
00r	.
=76-	=76-
.	.
=77-	=77-
1.BB-	Ky-
!LO:TX:t=P:problem=kreska pseudotaktowa	!
2C/	-ri-
=78-	=78-
2D/	-e
!LO:TX:t=P:problem=kreska pseudotaktowa	!
2E-X/	e-
0.D	-lei-
=79-	=79-
.	.
=80-	=80-
0Gl;	-son.
==	==
*-	*-
!!!RDF**kern: > = above
!!!RDF**kern: < = below
!!!RDF**kern: l = terminal long
!!!ENC: Andrzej Kubiczek
!!!END: 2021-07-30
!!!ENC: Berenika Jozajtis
!!!END: 2021-07-04
!!!YEC: Copyright 2022 Narodowy Instytut Fryderyka Chopina (https://polishscores.org)
!!!YEM: Licence CC BY 4.0 (https://creativecommons.org/licenses/by/4.0)
